X:1
T:Title
%%score 1 { ( 2 4 5 ) | ( 3 6 ) }
L:1/8
Q:1/4=75
M:2/4
K:Bb
V:1 treble nm="Choir Aahs"
V:2 treble nm="Grand Piano"
V:4 treble 
V:5 treble 
V:3 treble 
V:6 treble 
V:1
 z4 | z4 | Fd d2 | Gd d2 | dc Bc | d4 | d=E Ed | cA FG | AA AG | F4 | Fe dc | cB F2 | Fc Bc | d4 | %14
 Gd e=B | dc G2 | Fd dc | B4 | z4 | z4 | z4 | z4 |] %22
V:2
 z4 | z4 | z2 d2 | [EG]d d2 | [Bd][Ac] [GB]c | [DBd]4 | [Bd][D=E] [DE][EBd] | %7
 [=EAc][CEA] [A,DF][=B,FG] | [CFA][EA] [C=EA][EG] | [A,CF]4 | F[GAe] [FAd][EAc] | cB z B, | %12
 [A,EF][Ac] [GB]c | [FBd]4 | G[=Bd] [GBe][GB] | [FGd]c z C | [DF][Gd] [FAd][Ac] | [DB][DF] FF | %18
 FB dc | BF FF | FF [EF][EF] | [DF]4 |] %22
V:3
 fb b2 | Bf f2 | z[K:treble] B B2 | z[K:treble] B B2 | z2 [F,E]2 | B,,F, F,2 | G,,G, G,G,, | %7
 A,,C, D,_D, | z C z B, | F,,F, F,F, | F,F, F,F, | [F,DF][F,DF] [E,C]D, | z E z A | B,,F, B,_A, | %14
 z F z D | z [EG] C,-[C,E,] | z F z E | z F, D[CD] | [B,D][F,D][K:treble] [G,F][A,E] | %19
 [B,D][F,D] [DE][CE] | [B,D][F,D] D,C, | B,,4 |] %22
V:4
 x4 | x4 | [DF]d z ^F, | x4 | E2 z2 | x4 | x4 | x4 | x4 | x4 | x4 | z2 F2 | z2 E2 | x4 | x4 | %15
 z2 G2 | x4 | x4 | x4 | x4 | x4 | x4 |] %22
V:5
 x4 | x4 | F,4 | x4 | x4 | x4 | x4 | x4 | x4 | x4 | x4 | x4 | x4 | x4 | x4 | x4 | x4 | x4 | x4 | %19
 x4 | x4 | x4 |] %22
V:6
 x4 | x4 | B,,4[K:treble] | [B,,G,]4[K:treble] | F,,F, z A | x4 | x4 | x4 | C,2 C,2 | x4 | x4 | %11
 x4 | C,2 F,,2 | x4 | G,2 G,,2 | [C,G,]2 .[F,D]2 | F,2 F,,2 | B,,4 | x2[K:treble] x2 | x4 | x4 | %21
 x4 |] %22

